svg/fluentui-system-icons/ic_fluent_folder_arrow_right_24_regular.svg

<svg width="24" height="24" viewBox="0 0 24 24" fill="none" xmlns="http://www.w3.org/2000/svg">
<path d="M17.5 11C20.5376 11 23 13.4624 23 16.5C23 19.5376 20.5376 22 17.5 22C14.4624 22 12 19.5376 12 16.5C12 13.4624 14.4624 11 17.5 11ZM8.20693 4C8.66749 4 9.1153 4.14129 9.49094 4.40235L9.64734 4.5215L12.022 6.5H19.75C20.8867 6.5 21.8266 7.34297 21.9785 8.43788L21.9948 8.59595L22 8.75L22.0008 11.8104C21.5566 11.384 21.052 11.02 20.5011 10.7328L20.5 8.75C20.5 8.3703 20.2178 8.05651 19.8518 8.00685L19.75 8H12.021L9.64734 9.9785C9.29353 10.2733 8.85906 10.4515 8.40335 10.4914L8.20693 10.5L3.5 10.499V17.75C3.5 18.1297 3.78215 18.4435 4.14823 18.4932L4.25 18.5L11.3136 18.5004C11.4861 19.0342 11.7257 19.5378 12.0226 20.0012L4.25 20C3.05914 20 2.08436 19.0748 2.00519 17.904L2 17.75V6.25C2 5.05914 2.92516 4.08436 4.09595 4.00519L4.25 4H8.20693ZM17.7919 13.5452L17.7157 13.5886L17.6464 13.6464L17.5886 13.7157C17.4705 13.8862 17.4705 14.1138 17.5886 14.2843L17.6464 14.3536L19.292 16H14L13.9101 16.0081C13.706 16.0451 13.5451 16.206 13.5081 16.4101L13.5 16.5L13.5081 16.5899C13.5451 16.794 13.706 16.9549 13.9101 16.9919L14 17H19.292L17.6464 18.6464L17.5886 18.7157C17.4536 18.9106 17.4729 19.18 17.6464 19.3536C17.82 19.5271 18.0894 19.5464 18.2843 19.4114L18.3536 19.3536L20.8824 16.8221L20.9281 16.7585L20.9622 16.691L20.9834 16.6281L20.9979 16.5463L21 16.5L20.9972 16.4466L20.9834 16.3719L20.9533 16.2886L20.9112 16.2153L20.8656 16.1589L18.3536 13.6464L18.2843 13.5886C18.1382 13.4873 17.9501 13.4729 17.7919 13.5452ZM8.20693 5.5H4.25C3.8703 5.5 3.55651 5.78215 3.50685 6.14823L3.5 6.25V8.999L8.20693 9C8.34729 9 8.4841 8.96063 8.60221 8.88738L8.68706 8.82617L10.578 7.249L8.68706 5.67383C8.57923 5.58398 8.44893 5.52664 8.31129 5.5073L8.20693 5.5Z" fill="#212121"/>
</svg>

<svg xmlns="http://www.w3.org/2000/svg" width="24" height="24"><path d="M17.5 11a5.5 5.5 0 1 1 0 11 5.5 5.5 0 0 1 0-11ZM8.207 4c.46 0 .908.141 1.284.402l.156.12L12.022 6.5h7.728a2.25 2.25 0 0 1 2.229 1.938l.016.158.005.154v3.06a6.517 6.517 0 0 0-1.499-1.077L20.5 8.75a.75.75 0 0 0-.648-.743L19.75 8h-7.729L9.647 9.979a2.25 2.25 0 0 1-1.244.512l-.196.009-4.707-.001v7.251c0 .38.282.694.648.743l.102.007h7.064c.172.534.412 1.038.709 1.501L4.25 20a2.25 2.25 0 0 1-2.245-2.096L2 17.75V6.25a2.25 2.25 0 0 1 2.096-2.245L4.25 4h3.957Zm9.585 9.545-.076.044-.07.057-.057.07a.5.5 0 0 0 0 .568l.057.07L19.292 16H14l-.09.008a.5.5 0 0 0-.402.402l-.008.09.008.09a.5.5 0 0 0 .402.402L14 17h5.292l-1.646 1.646-.057.07a.5.5 0 0 0 .695.695l.07-.057 2.528-2.532.046-.063.034-.068.021-.063.015-.082L21 16.5l-.003-.053-.014-.075-.03-.083-.042-.074-.045-.056-2.512-2.513-.07-.057a.5.5 0 0 0-.492-.044ZM8.207 5.5H4.25a.75.75 0 0 0-.743.648L3.5 6.25v2.749L8.207 9a.75.75 0 0 0 .395-.113l.085-.06 1.891-1.578-1.89-1.575a.75.75 0 0 0-.377-.167L8.207 5.5Z"/></svg>
